X:1
T: Miss Chalmer
C:Nathaniel Gow
R:Jig
Q:180
K:D
M:6/8
L:1/16
B2|A2F2D2 D2E2D2|E2F2E2 E4B2|A2F2D2 D2E2D2|A2F2D2 B2c2d2|A2F2D2 D2E2D2|E2F2E2 E4d2|c6 d2c2B2|A2F2D2 D4fg|
a2f2d2 d2e2d2|e2f2e2 e2f2g2|a2f2d2 d2e2d2|f2g2a2 a2g2f2|g2b2g2 f2a2f2|e2f2e2 e2f2g2|a2f2d2 g2e2c2|d6 D4fg|
a2f2d2 d2e2d2|e2f2e2 e2f2g2|a2f2d2 d2e2d2|f2g2a2 a2g2f2|gab2g2 fga2f2|e2f2e2 e2f2g2|a2f2d2 g2e2c2|d2B2G2 A2F2d2|
A2F2D2 D2E2D2|E2F2E2 E4B2|A2F2D2 D2E2D2|A2F2D2 B2c2d2|A2F2D2 D2E2D2|E2F2E2 E4d2|c6 d2c2B2|A2F2D2 D4||

